packages/dnb-eufemia/assets/icons/oil_medium.svg

<svg width="24" height="24" viewBox="0 0 24 24" fill="none" xmlns="http://www.w3.org/2000/svg">
<path d="M13 20H18.5961M13 15.5C15.488 15.5 17.9759 15.5 20.4639 15.5M13 11H19.7075M13 6.5H16.6882M20.4639 15.5C20.4878 15.2445 20.5 14.9871 20.5 14.7284C20.5002 13.4365 20.2273 12.1669 19.7075 11M20.4639 15.5C20.3086 17.1535 19.6574 18.7224 18.5961 20M16.6882 6.5C17.8223 8.04353 18.726 9.30935 18.726 9.30935C19.1147 9.83927 19.4431 10.4064 19.7075 11M16.6882 6.5C14.9165 4.08883 12.5826 1 12.2525 1C11.7111 1 5.774 9.30935 5.774 9.30935C4.62114 10.8809 3.99968 12.7793 4 14.7284C4 16.9164 4.86919 19.0148 6.41637 20.562C7.96354 22.1092 10.062 22.9783 12.25 22.9783C14.438 22.9783 16.5365 22.1092 18.0836 20.562C18.2637 20.3819 18.4346 20.1943 18.5961 20" stroke="black" stroke-width="1.5" stroke-linecap="round" stroke-linejoin="round"/>
</svg>

<svg width="24" height="24" viewBox="0 0 24 24" fill="none" xmlns="http://www.w3.org/2000/svg"><path d="M13 20h5.596M13 15.5h7.464M13 11h6.707M13 6.5h3.688m3.776 9c.024-.255.036-.513.036-.772A9.159 9.159 0 0 0 19.707 11m.757 4.5a8.251 8.251 0 0 1-1.868 4.5M16.688 6.5a283.871 283.871 0 0 1 2.038 2.81 9.16 9.16 0 0 1 .982 1.69m-3.02-4.5C14.917 4.089 12.583 1 12.253 1c-.542 0-6.479 8.31-6.479 8.31A9.16 9.16 0 0 0 4 14.727 8.25 8.25 0 0 0 18.596 20" stroke="#000" stroke-width="1.5" stroke-linecap="round" stroke-linejoin="round"/></svg>
